X:1
T: Mrs. McGhie's Reel
C:
R:Jig
Q:180
K:Gm
M:6/8
L:1/16
|:D2|G6B6|d2B2G2 G2B2d2|c2A2F2 F4f2|c4B2 ABc2A2|
G6B6|d2B2G2 G2B2d2|d2e2f2 c2A2c2|d2B2G2 G4B2|
G2B2d2 g2a2b2|a2g2=e2 f6|c2A2F2 F4f2|c4B2 ABc2A2|
|1G2B2d2 g2a2b2|a2g2^f2 g6|B2A2B2 c2d2e2|d2B2G2 G4:|
|2b2a2g2 a2g2^f2|g2f2e2 d2c2B2|B2A2B2 c2d2e2|d2B2G2 G4||
